X:175
T:Young Man’s Delight,The. JaW.175
T:Cuckoo’s Nest,The. JaW.175
M:C|
L:1/8
Q:1/2=90
S:James Winder Ms, Lancashire, 1835-41
R:.Hornpipe
O:England
A:Wyresdale,Lancashire
Z:vmp.Chris Partington, Aug 2004
K:F
“_Key Sig. G in MS”DE|FEFD f2ed|cAGFB2AG|FEFD CDFC|c2G2G2AG|!
FEFD fga-f|cAGFB2AG|FEFD CDEG|F2D2D2:|!
|:A2|d2d2fgaf|d2A2A2AB|c2c2efge|c2G2G2fe|!
dcdef2ed|cAGFB2AG|FEFD CDEG|F2D2D2:|!
|:FG|AFDF AFDF|AGFED2EF|GECE GECE|GFEDC2FG|!
AFDF AFDF|AGFEf2f-g|agfe fedc|d2D2D2:|

